X:1
T:Title
%%score ( 1 2 ) { 3 | 4 }
L:1/8
Q:1/4=105
M:4/4
K:G
V:1 treble nm="Grand Piano, Unnamed-000"
V:2 treble 
V:3 bass nm="Choir Pad, Unnamed-001"
V:4 bass 
V:1
 D2 [CF]2 [DG]3 [DG] | GF[DG][FA] [FA]2 G2 | [DG]2 [GB]2 [Gd]3 [GB] | BAGF [DG]4 | %4
w: By~Henry~J.~Gauntlett,~1858 * * *||||
 D2 [CF]2 [DG]3 [DG] | GFGA A-[=CA] [B,G]2 | [DG]2 [GB]2 [Gd]3 [GB] | BAGF [DG]4 | %8
w: ||||
 [Ge]2 [Ge]2 d-[Fd-][Gd]G | [Gc]2 [Fc]2 [GB]4 | e-[Fe]e-[Ae] d-[Fd-][Gd][DB] | BAGF [DG]4- | %12
w: ||||
 [DG]4 z4 |] %13
w: |
V:2
 x8 | D2 z2 z4 | x8 | E2 D2 z4 | x8 | ^C2 C2 .D2 z2 | x8 | E2 D2 z4 | z4 .G2 z2 | x8 | %10
 .E2 .G2 .D2 z2 | E2 D2 z4 | x8 |] %13
V:3
 B,2 A,2 G,3 B, | B,A,B,C C2 B,2 | B,2 G,2 G,3[K:treble] D | DCB,A,[K:bass] B,4 | B,2 A,2 G,3 B, | %5
 G,2 G,2 F,2 G,2 | B,2 G,2 G,3[K:treble] D | DCB,A, B,4 | C2 C2 B,CDB, | A,2 D2 D4 | %10
 C2 C2 C[K:bass]A,B,D | DCB,A, B,4- | B,4 z4 |] %13
V:4
 G,,2 A,,2 B,,3 G,, | D,2 D,2 D,2 G,2 | G,2 E,2 B,,3 G,, | C,2 D,2 [G,,G,]4 | G,,2 A,,2 B,,3 G,, | %5
 E,2 A,,2 D,2 z2 | G,2 E,2 B,,3 G,, | C,2 D,2 [G,,G,]4 | C,D,E,F, G,A,B,G, | D,2 D,2 G,4 | %10
 C,D,E,F, G,3 G, | C,2 D,2 G,,4- | G,,4 z4 |] %13

